!!!!SEGMENT: pl-wtm--r-600-m_moniuszko-stanislaw--fedra-chor.krn
!!!cenid: 18xx:3010
!!!COM: Moniuszko, Stanisław
!!!COM-rismid: pe30008351
!!!CDT: 1819/05/05-1872/06/04
!!!CNT: Polish
!!!GTL: Fedra
!!!OTL: Chór
!!!PDT: 1865
!!!AGN: Secular
!!!SMS-siglum: PL-Wtm
!!!SMS-shelfmark: R 600/M
!!!SMS-shelfwork: G
!!!SMS-variant:
!!!SMS-altvar:
!!!NIFC-rismid: 1001090245
!!!URL-scan: http://repozytorium.nifc.pl/skany/pl-wtm-nut--r600m
!!!ONB-nifc:
**kern	**kern	**dynam	**kern	**text	**text	**dynam	**kern	**text	**text	**dynam	**kern	**dynam	**kern	**dynam
*part5	*part5	*part5	*part4	*part4	*part4	*part4	*part3	*part3	*part3	*part3	*part2	*part2	*part1	*part1
*staff6	*staff5	*	*staff4	*staff4	*staff4	*	*staff3	*staff3	*staff3	*	*staff2	*	*staff1	*
*	*I"[Pianoforte]	*	*I"[Basso]	*	*	*	*I"[Tenore]	*	*	*	*I"[Alto]	*	*I"[Soprano]	*
*clefF4	*clefG2	*	*clefF4	*	*	*	*clefG2	*	*	*	*clefG2	*	*clefG2	*
*	*	*	*	*	*	*	*ITrd8c12	*	*	*	*	*	*	*
*k[]	*k[]	*	*k[]	*	*	*	*k[]	*	*	*	*k[]	*	*k[]	*
*a:	*a:	*	*a:	*	*	*	*a:	*	*	*	*a:	*	*a:	*
*M4/4	*M4/4	*	*M4/4	*	*	*	*M4/4	*	*	*	*M4/4	*	*M4/4	*
*met(c)	*met(c)	*	*met(c)	*	*	*	*met(c)	*	*	*	*met(c)	*	*met(c)	*
*all\right	*all\right	*	*all\right	*	*	*	*all\right	*	*	*	*all\right	*	*all\right	*
=1	=1	=1	=1	=1	=1	=1	=1	=1	=1	=1	=1	=1	=1	=1
*2\right	*	*	*	*	*	*	*	*	*	*	*	*	*	*
!	!	!LO:DY:rj	!	!	!	!	!	!	!	!	!	!	!LO:TX:a:t=Andante.:color=dodgerblue	!
2.A\	2.e/	p	1r	.	.	.	2r	.	.	.	2r	.	2r	.
.	.	.	.	.	.	.	4r	.	.	.	4r	.	4r	.
!	!	!	!	!	!	!	!LO:TX:t=P:problem:tekst podpisany pod partią B w tt. nr 1-3	!	!	!LO:DY:a:rj	!	!LO:DY:a:rj	!	!LO:DY:a:rj
8.cL 8.A\	8.e/L	.	.	.	.	.	8.A/	1. A-	2. A-	p	8.c/	p	8.e/	p
16cJk 16A\	16f#XJk 16d/	.	.	.	.	.	16A/	-fro-	-fro-	.	16c/	.	16f#X 16d/	.
=2	=2	=2	=2	=2	=2	=2	=2	=2	=2	=2	=2	=2	=2	=2
2B 2G\	2g 2d/	.	1r	.	.	.	2G/	-dy-	-dy-	.	2B/	.	2g 2d/	.
4r	4r	.	.	.	.	.	8G/	-te	-te	.	8B/	.	8g 8d/	.
.	.	.	.	.	.	.	8r	.	.	.	8r	.	8r	.
8.c\L	8.e/L	.	.	.	.	.	8.c\	z_pian	o	.	8.c/	.	8.e/	.
16cJk 16A\	16f#XJk 16d/	.	.	.	.	.	16A/	zro-	wspa-	.	16c/	.	16f#X 16d/	.
=3	=3	=3	=3	=3	=3	=3	=3	=3	=3	=3	=3	=3	=3	=3
*	*	*	*	*	*	*	*	*	*	*	*	*	*^	*
2B 2G\	2g 2d/	.	2r	.	.	.	2G/	-dzo-	-nia-	.	2B/	.	2g 2d/	2ryy	.
4r	4r	.	4r	.	.	.	8G/	-na	-ła	.	8g/	.	8g/	8g\	.
.	.	.	.	.	.	.	8r	.	.	.	8r	.	8r	8ryy	.
!	!LO:ACC:color=red	!	!LO:ACC:color=red	!	!	!LO:DY:a:rj	!	!	!	!	!LO:ACC:color=red	!	!	!	!
8.AL 8.F\	8.aL 8.fn/	.	8.Fn\	ła-	jak	p	8.A/	.	.	.	8.fn/	.	8.a/	4ryy	.
16GJk 16D\	16bJk 16f/	.	16D\	-ski	po-	.	16G/	.	.	.	16f/	.	16b/	.	.
*	*	*	*	*	*	*	*	*	*	*	*	*	*v	*v	*
=4	=4	=4	=4	=4	=4	=4	=4	=4	=4	=4	=4	=4	=4	=4
4G 4C\	4cc 4e/	.	4C/	two-	-ran-	.	4G/	.	.	.	4e/	.	4cc\	.
4D\	4b 4f 4d/	.	4D/	-je	-ny	.	4d\	.	.	.	4f/	.	4b\	.
4E\	4a 4e 4c/	.	4E/	na	słoń-	.	4c\	.	.	.	4e/	.	4a\	.
4E\	4g#X 4e 4B/	.	4E/	nas	-ca	.	4B\	.	.	.	4e/	.	4g#X/	.
=5	=5	=5	=5	=5	=5	=5	=5	=5	=5	=5	=5	=5	=5	=5
[4E [4AA;/	[4a [>4e [4A;/	.	[4E 4AA;\	zlej.	blask.	.	[4A;/	.	.	.	[4e;/	.	[4a;/	.
8E] 8AA/]	8a] 8e] 8A/]	.	8E] 8AA\	.	.	.	8A/]	.	.	.	8e/]	.	8a/]	.
8r	8r	.	8r	.	.	.	8r	.	.	.	8r	.	8r	.
!	!	!LO:DY:rj	!	!	!	!LO:DY:a:rj	!	!	!	!LO:DY:a:rj	!	!LO:DY:a:rj	!	!LO:DY:a:rj
4.c 4.F\	4.a 4.f/	mf	4.F\	O	To-	mf	4.c\	.	.	mf	4.f/	mf	4.a/	mf
8c 8F\	8a 8f/	.	8F\	Świet-	-bie	.	8c\	.	.	.	8f/	.	8a/	.
!!LO:LB:g=original
=6	=6	=6	=6	=6	=6	=6	=6	=6	=6	=6	=6	=6	=6	=6
4.c 4.F\	4.cc 4.a^<\	.	4.F^\	-la-	chwa-	.	4.f^\	.	.	.	4.a^/	.	4.cc^\	.
8c 8F\	8a 8f/	.	8F\	-na!	-ła!	.	8c 8A/	.	.	.	8c/	.	8a/	.
4.c 4.G 4.C\	4.b-X 4.e/	.	4.C/	nie-	chwa-	.	4.c 4.G/	.	.	.	4.e/	.	4.b-X\	.
8c 8G 8C\	8cc 8e/	.	8C/	-skoń-	-ła!	.	8c 8G/	.	.	.	8e/	.	8cc\	.
=7	=7	=7	=7	=7	=7	=7	=7	=7	=7	=7	=7	=7	=7	=7
*	*	*	*2\right	*	*	*	*	*	*	*	*	*	*	*
2c 2F\	2a 2f/	.	2F\	-czo-	chwa-	.	2c 2A/	.	.	.	2f/	.	2a/	.
4r	4r	.	8A\	-na!	-ła!	.	8c 8A/	.	.	.	8a/	.	8a/	.
!	!	!	!LO:TX:t=P:problem:brak 8r	!	!	!	!	!	!	!	!	!	!	!
.	.	.	8ryy	.	.	.	8r	.	.	.	8r	.	8r	.
!	!	!LO:DY:rj	!	!	!	!LO:DY:a:rj	!	!	!	!LO:DY:a:rj	!	!LO:DY:a:rj	!	!LO:DY:a:rj
8A\L	4a/	f	8A\	po-	pa-	f	8A/	.	.	f	8a/	f	8a/	f
8G\J	.	.	8G\	-bło-	-ni	.	8A/	.	.	.	8a/	.	8a/	.
=8	=8	=8	=8	=8	=8	=8	=8	=8	=8	=8	=8	=8	=8	=8
4F\	4dd 4a 4d\	.	4F\	-go-	wdzięcz-	.	4d\	.	.	.	4a/	.	4dd\	.
8F\L	4a 4d/	.	8F\L	-sław	-na	.	4d\	.	.	.	4a/	.	4a/	.
8E\J	.	.	8E\J	.	.	.	.	.	.	.	.	.	.	.
4.D\	4.dd 4.a 4.f^<\	.	4.D^\	pa-	pa-	.	4.f^\	.	.	.	4.a^/	.	4.dd^\	.
8F\	8a 8d/	.	8F\	-rze	-ni	.	8d\	.	.	.	8a/	.	8a/	.
=9	=9	=9	=9	=9	=9	=9	=9	=9	=9	=9	=9	=9	=9	=9
*	*2\right	*	*	*	*	*	*2\right	*	*	*	*	*	*2\right	*
!	!	!	!	!	!	!LO:HP:b	!	!	!	!LO:HP:b	!	!LO:HP:a	!	!LO:HP:a
2A\	2cc 2a 2e\	>	[2A\	tej	łask.	>	[2e\	.	.	>	[2a/	>	[2cc\	>
4r	4r	]	8A\]	.	.	]	8e\]	.	.	]	8a/]	]	8cc\]	]
.	.	.	8r	.	.	.	8r	.	.	.	8r	.	8r	.
!	!	!LO:DY:rj	!	!	!	!LO:DY:a:rj	!	!	!	!LO:DY:a:rj	!	!LO:DY:a:rj	!	!LO:DY:a:rj
8.A\L	8.eL 8.c/	pp	8.A\	A-	A-	pp	8.c\	.	.	pp	8.e/	pp	8.e/	pp
16A\Jk	16f#XJk 16d 16c/	.	16A\	-fro-	-fro-	.	16c\	.	.	.	16d/	.	16f#X/	.
=10	=10	=10	=10	=10	=10	=10	=10	=10	=10	=10	=10	=10	=10	=10
2G\	2g 2d 2B/	.	2G\	-dy-	-dy-	.	2B\	.	.	.	2d/	.	2g/	.
4r	4r	.	8G\	-te	-te!	.	8B\	.	.	.	8d/	.	8g/	.
.	.	.	8r	.	.	.	8r	.	.	.	8r	.	8r	.
8.c\L	8.e/L	.	8.c\	z_pian	o	.	8.c\	.	.	.	8.e/	.	8.e/	.
16A\Jk	16f#XJk 16d 16c/	.	16A\	zro-	wspa-	.	16c\	.	.	.	16d/	.	16f#X/	.
=11	=11	=11	=11	=11	=11	=11	=11	=11	=11	=11	=11	=11	=11	=11
2G\	2g 2d 2B/	.	2G\	-dzo-	-nia-	.	2B\	.	.	.	2d/	.	2g/	.
4r	4r	.	8G\	-na	-ła	.	8B\	.	.	.	8d/	.	8g/	.
.	.	.	8r	.	.	.	8r	.	.	.	8r	.	8r	.
!	!	!	!	!	!	!LO:HP:a	!	!	!	!LO:HP:a	!	!LO:HP:a	!	!LO:HP:a
8.F\L	8.aL 8.f 8.c/	.	8.F\	ła-	chwa-	<	8.c\	.	.	<	8.f/	<	8.a/	<
16D\Jk	16bJk 16g 16f 16d/	.	16D\	-ski	-ła	[	16f 16d\	.	.	[	16g/	[	16b/	[
=12	=12	=12	=12	=12	=12	=12	=12	=12	=12	=12	=12	=12	=12	=12
!LO:TX:b:i:t=ralent.	!	!	!LO:TX:b:i:t=ralent	!	!	!LO:HP:a	!LO:TX:b:i:t=ralent.	!	!	!LO:HP:a	!LO:TX:b:i:t=ralent	!LO:HP:a	!LO:TX:b:i:t=ralent.	!LO:HP:a
4C/	4cc 4g 4e\	.	4C\	two-	to-	>	4e\	.	.	>	4g/	>	4cc\	>
4G\	4b 4g 4d\	.	4G\	-je	-bie	.	4d\	.	.	.	4g/	.	4b\	.
4A\	4a 4e 4c\	.	4A\	na	pa-	]	4c\	.	.	]	4e/	.	4a\	.
!	!	!	!	!	!	!LO:DY:a	!	!	!	!	!	!	!	!
4E\	4g#X 4e 4B/	.	4E\	nią	-ni	p	4B\	.	.	.	4e/	]	4g#X/	]
!	!	!	!	!	!	!	!	!	!	!LO:DY:a	!	!LO:DY:a	!	!LO:DY:a
.	.	.	.	.	.	.	.	.	.	p	.	p	.	p
=13	=13	=13	=13	=13	=13	=13	=13	=13	=13	=13	=13	=13	=13	=13
1E 1AA;	1a 1e 1A	.	1E 1AA;	zlej	łask.	.	1A;	.	.	.	1e;	.	1a;	.
==	==	==	==	==	==	==	==	==	==	==	==	==	==	==
*-	*-	*-	*-	*-	*-	*-	*-	*-	*-	*-	*-	*-	*-	*-
!!!system-decoration: ([s1,s2,s3,s4]{s5,s6})
!!!RDF**kern: > = above
!!!RDF**kern: < = below
!!!ENC: Katarzyna Serwa
!!!END: 2021-08-31
!!!ENC: Andrzej Kubiczek
!!!END: 2021-09-26
